build/img/sprites/smile.svg

<svg width="136" height="136" viewBox="0 0 136 136" fill="none" xmlns="http://www.w3.org/2000/svg">
<path d="M110.5 89.521C122.474 65.9608 113.082 37.1546 89.5214 25.1805C65.9612 13.2065 37.155 22.5989 25.181 46.159C13.2069 69.7192 22.5993 98.5254 46.1595 110.499C69.7196 122.474 98.5258 113.081 110.5 89.521Z" fill="#EFD05D"/>
<path d="M95.9732 78.8722C89.9599 94.4433 72.463 102.191 56.8918 96.178C41.3207 90.1648 33.5727 72.6678 39.5859 57.0967L95.9732 78.8722Z" fill="#403E41"/>
<path d="M64.8213 75.6403C56.0136 72.239 46.7091 72.4152 38.4971 75.4446C40.8368 84.5945 47.4095 92.5169 56.8901 96.1781C66.3714 99.8395 76.563 98.3911 84.4444 93.1884C80.3996 85.4249 73.629 79.0417 64.8213 75.6403Z" fill="#C83F5F"/>
<path d="M69.9097 42.3474C71.4671 38.3146 69.4605 33.7833 65.4277 32.2259C63.9586 31.6586 62.4237 31.566 60.9904 31.8704C60.1336 30.6817 58.9349 29.7185 57.4658 29.1512C53.433 27.5938 48.9017 29.6004 47.3443 33.6332C46.6106 35.5331 46.6685 37.5442 47.3565 39.302L47.3481 39.3057L53.0979 52.2901L65.4601 46.8159C67.4325 46.044 69.0863 44.4796 69.9097 42.3474Z" fill="#E04F49"/>
<path d="M106 56.2837C107.557 52.2509 105.55 47.7196 101.518 46.1622C100.048 45.5949 98.5136 45.5023 97.0802 45.8067C96.2235 44.6179 95.0248 43.6548 93.5557 43.0875C89.5229 41.5301 84.9915 43.5366 83.4341 47.5695C82.7004 49.4693 82.7583 51.4805 83.4463 53.2382L83.438 53.2419L89.1877 66.2263L101.55 60.7521C103.522 59.9803 105.176 58.4159 106 56.2837Z" fill="#E04F49"/>
</svg>

<svg width="136" height="136" viewBox="0 0 136 136" fill="none" xmlns="http://www.w3.org/2000/svg"><path d="M110.5 89.521c11.974-23.56 2.582-52.366-20.979-64.34-23.56-11.975-52.366-2.582-64.34 20.978-11.974 23.56-2.582 52.366 20.979 64.34 23.56 11.975 52.366 2.582 64.34-20.978z" fill="#EFD05D"/><path d="M95.973 78.872c-6.013 15.571-23.51 23.319-39.081 17.306-15.571-6.013-23.32-23.51-17.306-39.081l56.387 21.775z" fill="#403E41"/><path d="M64.821 75.64c-8.807-3.401-18.112-3.225-26.324-.195 2.34 9.15 8.913 17.072 18.393 20.733 9.481 3.662 19.673 2.213 27.554-2.99C80.4 85.425 73.63 79.042 64.821 75.64z" fill="#C83F5F"/><path d="M69.91 42.347a7.827 7.827 0 00-8.92-10.477 7.827 7.827 0 00-13.634 7.432l-.008.004 5.75 12.984 12.362-5.474a7.802 7.802 0 004.45-4.469zM106 56.284a7.828 7.828 0 00-8.92-10.477 7.827 7.827 0 00-13.634 7.431l-.008.004 5.75 12.984 12.362-5.474a7.805 7.805 0 004.45-4.468z" fill="#E04F49"/></svg>
